svg/emoji_u23e9.svg

<?xml version="1.0" encoding="UTF-8"?>
<svg width="128" height="128" enable-background="new 0 0 128 128" xmlns="http://www.w3.org/2000/svg"><linearGradient id="a" x1="64" x2="64" y1="4.25" y2="123.91" gradientUnits="userSpaceOnUse"><stop stop-color="#FFAB40" offset="0"/><stop stop-color="#FF6D00" offset="1"/></linearGradient><path d="m116 124h-104c-4.42 0-8-3.58-8-8v-104c0-4.42 3.58-8 8-8h104c4.42 0 8 3.58 8 8v104c0 4.42-3.58 8-8 8z" fill="url(#a)"/><g opacity=".2"><path d="m116 7c2.76 0 5 2.24 5 5v104c0 2.76-2.24 5-5 5h-104c-2.76 0-5-2.24-5-5v-104c0-2.76 2.24-5 5-5h104m0-3h-104c-4.42 0-8 3.58-8 8v104c0 4.42 3.58 8 8 8h104c4.42 0 8-3.58 8-8v-104c0-4.42-3.58-8-8-8z" fill="#424242"/></g><g fill="#424242" opacity=".2"><path d="m26.04 36c0.34 0 0.68 0.1 1.01 0.31l38.93 25.66c1.37 0.9 1.37 3.16 0 4.05l-38.93 25.67c-0.33 0.21-0.67 0.31-1.01 0.31-1.06 0-2.04-0.98-2.04-2.34v-51.32c0-1.36 0.98-2.34 2.04-2.34m0-3c-2.78 0-5.04 2.39-5.04 5.34v51.32c0 2.94 2.26 5.34 5.04 5.34 0.93 0 1.85-0.28 2.65-0.8l38.93-25.67c1.49-0.97 2.38-2.67 2.38-4.53s-0.89-3.56-2.38-4.54l-38.92-25.65c-0.81-0.53-1.73-0.81-2.66-0.81z"/><path d="m66.09 36c0.34 0 0.7 0.1 1.03 0.31l39.83 25.66c1.4 0.9 1.4 3.16 0 4.05l-39.83 25.67c-0.33 0.21-0.69 0.31-1.03 0.31-1.09 0-2.09-0.98-2.09-2.34v-51.32c0-1.36 1-2.34 2.09-2.34m0-3c-2.81 0-5.09 2.39-5.09 5.34v51.32c0 2.94 2.28 5.34 5.09 5.34 0.93 0 1.85-0.27 2.65-0.78l39.84-25.67c1.52-0.97 2.43-2.67 2.43-4.55s-0.91-3.58-2.43-4.55l-39.84-25.66c-0.81-0.52-1.72-0.79-2.65-0.79z"/></g><g fill="#FAFAFA"><path d="M24,64V38.34c0-1.79,1.69-2.91,3.05-2.03l38.93,25.66c1.37,0.9,1.37,3.16,0,4.05L27.05,91.69 C25.69,92.58,24,91.45,24,89.66V64z"/><path d="M64,64V38.34c0-1.79,1.73-2.91,3.12-2.03l39.83,25.66c1.4,0.9,1.4,3.16,0,4.05L67.12,91.69 C65.73,92.58,64,91.45,64,89.66V64z"/></g></svg>

<svg width="128" height="128" style="enable-background:new 0 0 128 128;" xmlns="http://www.w3.org/2000/svg" xmlns:xlink="http://www.w3.org/1999/xlink">
  <g>
    <linearGradient id="SVGID_1_" gradientUnits="userSpaceOnUse" x1="64" x2="64" y1="4.25" y2="123.9133">
      <stop offset="0" style="stop-color:#FFAB40"/>
      <stop offset="1" style="stop-color:#FF6D00"/>
    </linearGradient>
    <path d="M116,124H12c-4.42,0-8-3.58-8-8V12c0-4.42,3.58-8,8-8h104c4.42,0,8,3.58,8,8v104 C124,120.42,120.42,124,116,124z" style="fill:url(#SVGID_1_);"/>
    <g style="opacity:0.2;">
      <path d="M116,7c2.76,0,5,2.24,5,5v104c0,2.76-2.24,5-5,5H12c-2.76,0-5-2.24-5-5V12c0-2.76,2.24-5,5-5H116 M116,4H12c-4.42,0-8,3.58-8,8v104c0,4.42,3.58,8,8,8h104c4.42,0,8-3.58,8-8V12C124,7.58,120.42,4,116,4L116,4z" style="fill:#424242;"/>
    </g>
    <g style="opacity:0.2;">
      <path d="M26.04,36c0.34,0,0.68,0.1,1.01,0.31l38.93,25.66c1.37,0.9,1.37,3.16,0,4.05L27.05,91.69 C26.72,91.9,26.38,92,26.04,92C24.98,92,24,91.02,24,89.66V64V38.34C24,36.98,24.98,36,26.04,36 M26.04,33L26.04,33 C23.26,33,21,35.39,21,38.34V64v25.66c0,2.94,2.26,5.34,5.04,5.34c0.93,0,1.85-0.28,2.65-0.8l38.93-25.67 C69.11,67.56,70,65.86,70,64s-0.89-3.56-2.38-4.54L28.7,33.81C27.89,33.28,26.97,33,26.04,33L26.04,33z" style="fill:#424242;"/>
      <path d="M66.09,36c0.34,0,0.7,0.1,1.03,0.31l39.83,25.66c1.4,0.9,1.4,3.16,0,4.05L67.12,91.69 C66.79,91.9,66.43,92,66.09,92C65,92,64,91.02,64,89.66V64V38.34C64,36.98,65,36,66.09,36 M66.09,33L66.09,33 C63.28,33,61,35.39,61,38.34V64v25.66c0,2.94,2.28,5.34,5.09,5.34c0.93,0,1.85-0.27,2.65-0.78l39.84-25.67 c1.52-0.97,2.43-2.67,2.43-4.55s-0.91-3.58-2.43-4.55L68.74,33.79C67.93,33.27,67.02,33,66.09,33L66.09,33z" style="fill:#424242;"/>
    </g>
    <g>
      <path d="M24,64V38.34c0-1.79,1.69-2.91,3.05-2.03l38.93,25.66c1.37,0.9,1.37,3.16,0,4.05L27.05,91.69 C25.69,92.58,24,91.45,24,89.66V64z" style="fill:#FAFAFA;"/>
      <path d="M64,64V38.34c0-1.79,1.73-2.91,3.12-2.03l39.83,25.66c1.4,0.9,1.4,3.16,0,4.05L67.12,91.69 C65.73,92.58,64,91.45,64,89.66V64z" style="fill:#FAFAFA;"/>
    </g>
  </g>
</svg>
